X: 26404
T: Merry Maid's Wedding, The
R: strathspey
M: 4/4
K: Adorian
|:f|e ~A3 ed B/c/d|eAAB GABd|eAAf edBd|egdB ~A3:|
|:g|ed e/f/g ~a3 g|egdB e ~g3|1 edeg abag|egdB A3:|

